src/assets/img/check_box_outline_blank.svg

<svg width="18" height="18" viewBox="0 0 18 18" fill="none" xmlns="http://www.w3.org/2000/svg">
<path d="M2 18C1.45 18 0.979167 17.8042 0.5875 17.4125C0.195833 17.0208 0 16.55 0 16V2C0 1.45 0.195833 0.979167 0.5875 0.5875C0.979167 0.195833 1.45 0 2 0H16C16.55 0 17.0208 0.195833 17.4125 0.5875C17.8042 0.979167 18 1.45 18 2V16C18 16.55 17.8042 17.0208 17.4125 17.4125C17.0208 17.8042 16.55 18 16 18H2ZM2 16H16V2H2V16Z" fill="#FFFCF3"/>
</svg>

<svg xmlns="http://www.w3.org/2000/svg" width="18" height="18" fill="none"><path fill="#FFFCF3" d="M2 18c-.55 0-1.02-.196-1.413-.587A1.926 1.926 0 0 1 0 16V2C0 1.45.196.98.588.587A1.926 1.926 0 0 1 2 0h14c.55 0 1.02.196 1.413.588C17.803.979 18 1.45 18 2v14c0 .55-.196 1.02-.587 1.413A1.926 1.926 0 0 1 16 18H2Zm0-2h14V2H2v14Z"/></svg>
